X: 1
T: Tatter Jack Walsh
C: trad.
R: jig
S: Fiddle Hell Online 2022-2/22 handout for Maria Fibish workshop
Z: 2022 John Chambers <jc:trillian.mit.edu>
M: 6/8
L: 1/8
K: Dmix
"^A"|: fef d2d | cAB c2A | dcA GFG | Add efg | fef d2d | cAB c2A | dcA GFG | Ad^c [1 d2e :|2 d2A ||
"^B"|: dfa dfa | dfa agf | g2g ged | ^cde gfg | afd fed | cAB c2A | dcA GFG | Ad^c [1 d2A :|[2 d3 |]
